source/images/icon/open-source.svg

<svg fill="#e5e7eb" height="32" viewBox="0 0 34 32" width="34" xmlns="http://www.w3.org/2000/svg"><path clip-rule="evenodd" d="m16.5228 0c-9.12511.0008061-16.5228 7.399-16.5228 16.5258 0 6.0111 3.21044 11.2714 8.00987 14.1622.85646.5158 1.76353.9562 2.71203 1.312l3.8081-10.155c.0001 0-.0001-.0001 0 0-1.2459-.4673-2.2884-1.3571-2.9453-2.5143-.657-1.1572-.8868-2.5083-.6494-3.8177.2374-1.3093.927-2.4937 1.9484-3.3466 1.0215-.8529 2.3099-1.3201 3.6406-1.3201s2.6192.4672 3.6406 1.3201 1.711 2.0373 1.9484 3.3466c.2374 1.3094.0076 2.6605-.6493 3.8177-.657 1.1572-1.6994 2.0471-2.9454 2.5143l3.8082 10.155c.9484-.3558 1.8555-.7962 2.712-1.312 4.7994-2.8908 8.0098-8.1511 8.0098-14.1622 0-9.1268-7.3977-16.52499403-16.5243-16.5258-.0002 0-.0012 0-.0015 0zm.0015 3c7.4698.00081 13.5243 6.05585 13.5243 13.5258 0 4.717-2.4166 8.8742-6.0852 11.2947l-1.7702-4.7207c.7474-.6446 1.385-1.4167 1.8797-2.288 1.0039-1.7684 1.3551-3.8331.9923-5.834s-1.4166-3.8109-2.9775-5.11422c-1.5609-1.30333-3.5299-2.01728-5.5634-2.01728s-4.0024.71395-5.5634 2.01728c-1.56087 1.30332-2.61465 3.11332-2.97746 5.11422-.3628 2.0009-.0116 4.0656.99233 5.834.49465.8713 1.13233 1.6434 1.87963 2.288l-1.77023 4.7207c-3.66854-2.4205-6.08517-6.5777-6.08517-11.2947 0-7.47013 6.05472-13.52499 13.5228-13.5258" fill-rule="evenodd"/></svg>

<svg width="34" height="32" viewBox="0 0 34 32" fill="#E5E7EB" xmlns="http://www.w3.org/2000/svg">
<path fill-rule="evenodd" clip-rule="evenodd" d="M16.5228 0C7.39769 0.000806101 0 7.399 0 16.5258C0 22.5369 3.21044 27.7972 8.00987 30.688C8.86633 31.2038 9.7734 31.6442 10.7219 32L14.53 21.845C14.5301 21.845 14.5299 21.8449 14.53 21.845C13.2841 21.3777 12.2416 20.4879 11.5847 19.3307C10.9277 18.1735 10.6979 16.8224 10.9353 15.513C11.1727 14.2037 11.8623 13.0193 12.8837 12.1664C13.9052 11.3135 15.1936 10.8463 16.5243 10.8463C17.855 10.8463 19.1435 11.3135 20.1649 12.1664C21.1863 13.0193 21.8759 14.2037 22.1133 15.513C22.3507 16.8224 22.1209 18.1735 21.464 19.3307C20.807 20.4879 19.7646 21.3778 18.5186 21.845L22.3268 32C23.2752 31.6442 24.1823 31.2038 25.0388 30.688C29.8382 27.7972 33.0486 22.5369 33.0486 16.5258C33.0486 7.399 25.6509 0.000805969 16.5243 0C16.5246 0 16.5241 0 16.5243 0C16.5241 0 16.5231 0 16.5228 0ZM16.5243 3C23.9941 3.00081 30.0486 9.05585 30.0486 16.5258C30.0486 21.2428 27.632 25.4 23.9634 27.8205L22.1932 23.0998C22.9406 22.4552 23.5782 21.6831 24.0729 20.8118C25.0768 19.0434 25.428 16.9787 25.0652 14.9778C24.7024 12.9769 23.6486 11.1669 22.0877 9.86358C20.5268 8.56025 18.5578 7.8463 16.5243 7.8463C14.4908 7.8463 12.5219 8.56025 10.9609 9.86358C9.40003 11.1669 8.34625 12.9769 7.98344 14.9778C7.62064 16.9787 7.97184 19.0434 8.97577 20.8118C9.47042 21.6831 10.1081 22.4552 10.8554 23.0998L9.08517 27.8205C5.41663 25.4 3 21.2428 3 16.5258C3 9.05567 9.05472 3.00081 16.5228 3"/>
</svg>
